!!!!SEGMENT: pl-wtm--r-559-m_moniuszko-stanislaw--paria-akt-trzeci-scena-pierwsza.krn
!!!cenid: 18xx:3046
!!!COM: Moniuszko, Stanisław
!!!COM-rismID:
!!!CDT: 1819/05/05-1872/06/04
!!!CNT: Polish
!!!GTL: Paria
!!!OTL: Akt trzeci - Scena pierwsza
!!!PDT:
!!!AGN: Secular
!!!SMS-siglum: PL-Wtm
!!!SMS-shelfmark: R 559/M
!!!SMS-shelfwork: G
!!!SMS-variant:
!!!SMS-altvar:
!!!NIFC-rismSourceID: 1001091081
!!!NIFC-islandoraID:
!!!URL-pdf-islandora:
!!!URL-scan:
!!!ONB-nifc: UWAGA: skan 0018-0019
!!!AIN: 1 alto 1 bass 2 piano 1 soprn 1 tenor
!!!key: A
**kern	**kern	**kern	**text	**kern	**text	**kern	**kern	**dynam
*part6	*part5	*part4	*part4	*part3	*part3	*part2	*part1	*part1
*staff6	*staff5	*staff4	*staff4	*staff3	*staff3	*staff2	*staff1	*
*I"Wojownicy i Bramini.	*I"Wojownicy i Bramini.	*I"Bramini i Kobiety z ludu.	*	*I"Bramini i Kobiety z ludu.	*	*I"[Fortepian]	*I"[Fortepian]	*
*I'	*I'	*I'	*	*I'	*	*I'	*I'	*
*Ibass	*Itenor	*Ialto	*	*Isoprn	*	*Ipiano	*Ipiano	*
*ICvox	*ICvox	*ICvox	*	*ICvox	*	*ICklav	*ICklav	*
*clefF4	*clefG2	*clefG2	*	*clefG2	*	*clefF4	*clefG2	*
*k[]	*k[]	*k[]	*	*k[]	*	*k[]	*k[]	*
*A:	*A:	*A:	*	*A:	*	*A:	*A:	*
*	*ITrd8c12	*	*	*	*	*	*	*
*M4/4	*M4/4	*M4/4	*	*M4/4	*	*M4/4	*M4/4	*
*met(c)	*met(c)	*met(c)	*	*met(c)	*	*met(c)	*met(c)	*
=1	=1	=1	=1	=1	=1	=1	=1	=1
*	*	*	*	*	*	*tremolo	*	*
!!LO:TX:t=P:problem:all\middle or right:global	!
!	!	!	!	!	!	!	!LO:TX:b:i:t=impetuoso.:color=dodgerblue	!
!	!	!	!	!	!	!	!LO:TX:t=52 b):color=dodgerblue	!
!	!	!	!	!	!	!	!LO:TX:t=Akt trzeci. Scena pierwſza.:note=podkreślone	!LO:DY:rj
1ryy	1ryy	1ryy	.	1ryy	.	32AALLL 32AAA/	4.eee 4.ccc 4.aa 4.ee\	ff
.	.	.	.	.	.	32AA 32AAA/	.	.
.	.	.	.	.	.	32AA 32AAA/	.	.
.	.	.	.	.	.	32AA 32AAA/	.	.
.	.	.	.	.	.	32AA 32AAA/	.	.
.	.	.	.	.	.	32AA 32AAA/	.	.
.	.	.	.	.	.	32AA 32AAA/	.	.
.	.	.	.	.	.	32AAJJJ 32AAA/	.	.
*	*	*	*	*	*	*Xtremolo	*	*
.	.	.	.	.	.	8AA 8AAA/	.	.
*	*	*	*	*	*	*clefG2	*	*
.	.	.	.	.	.	16dd\LL	16ddd\LL	.
.	.	.	.	.	.	16cc\JJ	16ccc\JJ	.
.	.	.	.	.	.	16b/LL	16bb\LL	.
.	.	.	.	.	.	16a/	16aa\	.
.	.	.	.	.	.	16g#X/	16gg#X\	.
.	.	.	.	.	.	16a/JJ	16aa\JJ	.
.	.	.	.	.	.	16cc/LL	16ccc\LL	.
.	.	.	.	.	.	16b/	16bb\	.
.	.	.	.	.	.	16a/	16aa\	.
.	.	.	.	.	.	16gn/JJ	16ggn\JJ	.
=2	=2	=2	=2	=2	=2	=2	=2	=2
1ryy	1ryy	1ryy	.	1ryy	.	16f/LL	16ff\LL	.
.	.	.	.	.	.	16e/	16ee\	.
.	.	.	.	.	.	16d#X/	16dd#X\	.
.	.	.	.	.	.	16e/JJ	16ee\JJ	.
.	.	.	.	.	.	16a/LL	16aa\LL	.
.	.	.	.	.	.	16g/	16gg\	.
.	.	.	.	.	.	16f/	16ff\	.
.	.	.	.	.	.	16e/JJ	16ee\JJ	.
.	.	.	.	.	.	16dn/LL	16ddn\LL	.
.	.	.	.	.	.	16c/	16cc\	.
.	.	.	.	.	.	16B/	16b\	.
.	.	.	.	.	.	16c/JJ	16cc\JJ	.
.	.	.	.	.	.	16e/LL	16ee\LL	.
.	.	.	.	.	.	16d/	16dd\	.
.	.	.	.	.	.	16c/	16cc\	.
.	.	.	.	.	.	16B/JJ	16b\JJ	.
=3	=3	=3	=3	=3	=3	=3	=3	=3
1ryy	1ryy	1ryy	.	1ryy	.	8A/	8a/	.
*	*	*	*	*	*	*clefF4	*	*
.	.	.	.	.	.	4A 4E 4AA\	4b 4a 4e^/	.
*	*	*	*	*	*	*head:invis	*	*
.	.	.	.	.	.	4A 4E 4AA\	4cc 4a 4e^/	.
.	.	.	.	.	.	4A 4E 4AA\	4dd 4a 4e^/	.
!	!	!	!	!	!	!	!LO:TX:t=P:problem:brak początków łuków	!
.	.	.	.	.	.	8A 8E 8AA\	(8dd#X [8cc [8a^/	.
!!linebreak:original
*	*	*	*	*	*	*Xhead	*	*
=4	=4	=4	=4	=4	=4	=4	=4	=4
*	*	*	*	*	*	*tremolo	*	*
1ryy	1ryy	1ryy	.	1ryy	.	8AL 8E 8AA\	8eeL 8cc] 8a\])	.
.	.	.	.	.	.	8A 8E 8AA\	8ff#X 8ee 8cc 8a^\	.
.	.	.	.	.	.	8A 8E 8AA\	8gg#X 8ee 8cc^\	.
.	.	.	.	.	.	8A 8E 8AA\	8aaJ 8ee 8cc^\	.
.	.	.	.	.	.	8A 8E 8AA\	8bbL 8ee^\	.
.	.	.	.	.	.	8A 8E 8AA\	8ccc 8aa 8ee^\	.
.	.	.	.	.	.	8A 8E 8AA\	8ddd 8aa 8ee^\	.
.	.	.	.	.	.	8AJ 8E 8AA\	8eeeJ 8ccc 8aa 8ee^\	.
*	*	*	*	*	*	*Xtremolo	*	*
=5	=5	=5	=5	=5	=5	=5	=5	=5
1ryy	1ryy	1ryy	.	1ryy	.	8r	(4.fff 4.ff^\	.
.	.	.	.	.	.	8A\	.	.
.	.	.	.	.	.	4f 4d 4B^\	.	.
.	.	.	.	.	.	.	16eeeLL 16ee\	.
.	.	.	.	.	.	.	16ddd#XJJ 16dd#X\	.
.	.	.	.	.	.	8r	4.eee 4.ee^\)	.
.	.	.	.	.	.	8G\	.	.
.	.	.	.	.	.	4e 4c 4B^\	.	.
.	.	.	.	.	.	.	16bb\LL	.
.	.	.	.	.	.	.	16ccc\JJ	.
=6	=6	=6	=6	=6	=6	=6	=6	=6
1ryy	1ryy	1ryy	.	1ryy	.	8r	4.eee 4.ee\	.
.	.	.	.	.	.	8G\	.	.
.	.	.	.	.	.	4e 4c 4A^\	.	.
.	.	.	.	.	.	.	16dddnLL 16dd\	.
.	.	.	.	.	.	.	16cccJJ 16cc\	.
.	.	.	.	.	.	8r	4.ddd 4.dd\	.
.	.	.	.	.	.	8F\	.	.
.	.	.	.	.	.	4d 4B 4A\	.	.
.	.	.	.	.	.	.	16aa\LL	.
.	.	.	.	.	.	.	16bb\JJ	.
!!linebreak:original
=7	=7	=7	=7	=7	=7	=7	=7	=7
1ryy	1ryy	1ryy	.	1ryy	.	8e 8c 8A 8E\	16ccc\LL	.
.	.	.	.	.	.	.	16aa\	.
*	*	*	*	*	*	*clefG2	*	*
.	.	.	.	.	.	16ee\LL	16eee\	.
.	.	.	.	.	.	16dd\JJ	16ddd\JJ	.
.	.	.	.	.	.	16cc/LL	16ccc\LL	.
.	.	.	.	.	.	16b/	16bb\	.
.	.	.	.	.	.	16a/	16aa\	.
.	.	.	.	.	.	16g/JJ	16gg\JJ	.
.	.	.	.	.	.	16f/LL	16ff\LL	.
.	.	.	.	.	.	16e/	16ee\	.
.	.	.	.	.	.	16d/	16dd\	.
.	.	.	.	.	.	16c/JJ	16cc\JJ	.
*	*	*	*	*	*	*clefF4	*	*
.	.	.	.	.	.	16B\LL	16b/LL	.
.	.	.	.	.	.	16A\	16a/	.
.	.	.	.	.	.	16G\	16g/	.
.	.	.	.	.	.	16F\JJ	16f/JJ	.
=8	=8	=8	=8	=8	=8	=8	=8	=8
1ryy	1ryy	1ryy	.	1ryy	.	8E\	8e/	.
.	.	.	.	.	.	4E 4EE/	4f 4c 4A^/	.
.	.	.	.	.	.	8E 8EE/	8f#X 8e-X 8c/	.
*	*	*	*	*	*	*tremolo	*	*
.	.	.	.	.	.	8EL 8EE/	8gL 8d 8B^/	.
.	.	.	.	.	.	8E 8EE/	8g#X 8fn 8d^/	.
!	!	!	!	!	!	!	!LO:SIC:v:n=2:s=8en	!
.	.	.	.	.	.	8E 8EE/	8a 8e- 8c^/	.
!	!	!	!	!	!	!	!LO:SIC:v:n=3:s=8en^/	!
.	.	.	.	.	.	8EJ 8EE/	8bJ 8g# 8e-^/	.
*	*	*	*	*	*	*Xtremolo	*	*
=9	=9	=9	=9	=9	=9	=9	=9	=9
1ryy	1ryy	1ryy	.	1ryy	.	8AA 8AAA/	8cc 8a 8e/	.
.	.	.	.	.	.	8r	8r	.
.	.	.	.	.	.	8D 8DD/	8ff 8b 8a 8f/	.
.	.	.	.	.	.	8r	8r	.
.	.	.	.	.	.	8F 8FF/	8dd 8b 8a 8d/	.
.	.	.	.	.	.	8r	8r	.
.	.	.	.	.	.	8E 8EE/	8ee 8b 8g#X 8e/	.
!	!	!	!	!	!	!LO:TX:t=P:problem:fermata:color=dodgerblue	!	!
.	.	.	.	.	.	8r;	8r;	.
!!linebreak:original
=10||	=10||	=10||	=10||	=10||	=10||	=10||	=10||	=10||
*k[f#c#g#]	*k[f#c#g#]	*k[f#c#g#]	*	*k[f#c#g#]	*	*k[f#c#g#]	*k[f#c#g#]	*
*M2/2	*M2/2	*M2/2	*	*M2/2	*	*M2/2	*M2/2	*
*met(c|)	*met(c|)	*met(c|)	*	*met(c|)	*	*met(c|)	*met(c|)	*
!	!	!	!	!	!	!	!LO:TX:t=P:problem:znaki: f# zamiast ff#, g# zamiast gg#	!
!	!	!	!	!	!	!	!LO:TX:a:t=doppio movimento.	!LO:DY:t=pp. molto giojoso.
1ryy	1ryy	1ryy	.	1ryy	.	1r	4ee 4a\	pp
*	*	*	*	*	*	*	*head:invis	*
.	.	.	.	.	.	.	8eeL 8a\	.
.	.	.	.	.	.	.	8eeJ 8a\	.
*	*	*	*	*	*	*	*Xhead	*
*	*	*	*	*	*	*	*2\right	*
.	.	.	.	.	.	.	[2ee [>2a\	.
=11	=11	=11	=11	=11	=11	=11	=11	=11
1ryy	1ryy	1ryy	.	1ryy	.	4e 4A\	1ee] 1a]	.
*	*	*	*	*	*	*head:invis	*	*
.	.	.	.	.	.	8eL 8A\	.	.
.	.	.	.	.	.	8eJ 8A\	.	.
*	*	*	*	*	*	*Xhead	*	*
*	*	*	*	*	*	*2\right	*	*
.	.	.	.	.	.	[2e [>2A\	.	.
=12	=12	=12	=12	=12	=12	=12	=12	=12
1ryy	1ryy	1ryy	.	1ryy	.	1e] 1A]	4ee 4a\	.
*	*	*	*	*	*	*	*head:invis	*
.	.	.	.	.	.	.	8eeL 8a\	.
.	.	.	.	.	.	.	8eeJ 8a\	.
*	*	*	*	*	*	*	*Xhead	*
.	.	.	.	.	.	.	[2ee 2a\	.
=13	=13	=13	=13	=13	=13	=13	=13	=13
*	*	*	*	*	*	*	*^	*
1ryy	1ryy	1ryy	.	1ryy	.	4e 4A\	2.ee/]	1a	.
*	*	*	*	*	*	*head:invis	*	*	*
.	.	.	.	.	.	8eL 8A\	.	.	.
.	.	.	.	.	.	8eJ 8A\	.	.	.
*	*	*	*	*	*	*Xhead	*	*	*
.	.	.	.	.	.	[2e [2A\	.	.	.
.	.	.	.	.	.	.	(<8ee/L	.	.
.	.	.	.	.	.	.	8ff#/J)	.	.
=14	=14	=14	=14	=14	=14	=14	=14	=14	=14
1ryy	1ryy	1ryy	.	1ryy	.	1e] 1A]	[1ff#^	4ee 4a\	.
*	*	*	*	*	*	*	*	*head:invis	*
.	.	.	.	.	.	.	.	8eeL 8a\	.
.	.	.	.	.	.	.	.	8eeJ 8a\	.
*	*	*	*	*	*	*	*	*Xhead	*
!	!	!	!	!	!	!	!	!LO:TX:t=P:problem:brak początków łuków	!
.	.	.	.	.	.	.	.	[2ee [2a\	.
!!linebreak:original
=15	=15	=15	=15	=15	=15	=15	=15	=15	=15
!	!	!	!	!	!	!	!LO:TX:t=P:problem:brak zakończenia łuku	!	!
1ryy	1ryy	1ryy	.	1ryy	.	4e 4c# 4A\	2.ff#/]	1ee] 1a]	.
*	*	*	*	*	*	*head:invis	*	*	*
.	.	.	.	.	.	8eL 8c# 8A\	.	.	.
.	.	.	.	.	.	8eJ 8c# 8A\	.	.	.
*	*	*	*	*	*	*Xhead	*	*	*
.	.	.	.	.	.	[2e [2c# [2A\	.	.	.
.	.	.	.	.	.	.	8ee/L	.	.
.	.	.	.	.	.	.	8gg#/J	.	.
=16	=16	=16	=16	=16	=16	=16	=16	=16	=16
1ryy	1ryy	1ryy	.	1ryy	.	1e] 1c#] 1A]	[1ff#	4ee 4a\	.
*	*	*	*	*	*	*	*	*head:invis	*
.	.	.	.	.	.	.	.	8eeL 8a\	.
.	.	.	.	.	.	.	.	8eeJ 8a\	.
*	*	*	*	*	*	*	*	*Xhead	*
.	.	.	.	.	.	.	.	[2ee [2a\	.
=17	=17	=17	=17	=17	=17	=17	=17	=17	=17
1ryy	1ryy	1ryy	.	1ryy	.	2e 2c# 2A\	4ff#/]	4ee] 4a\]	.
.	.	.	.	.	.	.	(8ee/L	2a^\	.
.	.	.	.	.	.	.	8ff#/J)	.	.
.	.	.	.	.	.	[2e [2c# [2A\	4ff#/	.	.
.	.	.	.	.	.	.	(8ee/L	[4a^\	.
.	.	.	.	.	.	.	8ff#/J)	.	.
=18	=18	=18	=18	=18	=18	=18	=18	=18	=18
1ryy	1ryy	1ryy	.	1ryy	.	2.e] 2.c#] 2.A\]	[1ggn	4ee 4cc# 4a\]	.
.	.	.	.	.	.	.	.	8eeL 8cc# 8a\	.
.	.	.	.	.	.	.	.	8eeJ 8cc# 8a\	.
.	.	.	.	.	.	.	.	[2ee [2cc# [2a\	.
.	.	.	.	.	.	8eL 8A\	.	.	.
*	*	*	*	*	*	*head:invis	*	*	*
.	.	.	.	.	.	8eJ 8A\	.	.	.
*	*	*	*	*	*	*Xhead	*	*	*
=19	=19	=19	=19	=19	=19	=19	=19	=19	=19
1ryy	1ryy	1ryy	.	1ryy	.	2.e 2.A\	2.ggnX/]	4ee] 4cc#] 4a\]	.
.	.	.	.	.	.	.	.	8eeL 8cc# 8a\	.
*	*	*	*	*	*	*	*	*head:invis	*
.	.	.	.	.	.	.	.	8eeJ 8cc# 8a\	.
*	*	*	*	*	*	*	*	*Xhead	*
.	.	.	.	.	.	.	.	2ee 2cc# 2a\	.
.	.	.	.	.	.	8eL 8A\	(<8ee/L	.	.
.	.	.	.	.	.	8eJ 8A\	8ff#/J)	.	.
!!linebreak:original
=20	=20	=20	=20	=20	=20	=20	=20	=20	=20
1ryy	1ryy	1ryy	.	1ryy	.	2.e 2.A\	[1ggn	4ee 4cc# 4a\	.
.	.	.	.	.	.	.	.	8eeL 8cc# 8a\	.
*	*	*	*	*	*	*	*	*head:invis	*
.	.	.	.	.	.	.	.	8eeJ 8cc# 8a\	.
*	*	*	*	*	*	*	*	*Xhead	*
.	.	.	.	.	.	.	.	[2ee [2cc# [2a\	.
.	.	.	.	.	.	8eL 8A\	.	.	.
*	*	*	*	*	*	*head:invis	*	*	*
.	.	.	.	.	.	8eJ 8A\	.	.	.
*	*	*	*	*	*	*Xhead	*	*	*
=21	=21	=21	=21	=21	=21	=21	=21	=21	=21
1ryy	1ryy	1ryy	.	1ryy	.	2e 2A\	4ggn/]	4ee] 4cc#] 4a\]	.
.	.	.	.	.	.	.	(<8ee/L	2cc# 2a^\	.
.	.	.	.	.	.	.	8ff#/J	.	.
!	!	!	!	!	!	!	!LO:SIC:v:s=4ggn/)	!	!
.	.	.	.	.	.	2e 2A\	4gg#y/)	.	.
.	.	.	.	.	.	.	(<8ee/L	[4cc# [4a^\	.
.	.	.	.	.	.	.	8ff#/J	.	.
=22	=22	=22	=22	=22	=22	=22	=22	=22	=22
1ryy	1ryy	1ryy	.	1ryy	.	4AA/	4ggn/)	4cc#] 4a\]	.
!	!	!	!	!	!	!	!LO:SIC:v:n=3:s=8gn\	!	!
.	.	.	.	.	.	8eL 8A\	8ggL 8cc# 8g#\	4ryy	.
*	*	*	*	*	*	*head:invis	*head:invis	*	*
!	!	!	!	!	!	!	!LO:SIC:v:n=3:s=8gn\	!	!
.	.	.	.	.	.	8eJ 8A\	8ggJ 8cc# 8g#\	.	.
*	*	*	*	*	*	*	*Xhead	*	*
!	!	!	!	!	!	!	!LO:SIC:v:n=3:s=4.gn\	!	!
.	.	.	.	.	.	4e 4A\	(4.gg 4.cc# 4.g#\	2ryy	.
.	.	.	.	.	.	4e 4A\	.	.	.
.	.	.	.	.	.	.	8aa\)	.	.
*	*	*	*	*	*	*Xhead	*	*	*
*	*	*	*	*	*	*	*v	*v	*
=23	=23	=23	=23	=23	=23	=23	=23	=23
1ryy	1ryy	1ryy	.	1ryy	.	4AA/	(8ggn\L	.
.	.	.	.	.	.	.	8ff#\)	.
.	.	.	.	.	.	8eL 8c# 8A\	8ee'\	.
*	*	*	*	*	*	*head:invis	*	*
.	.	.	.	.	.	8eJ 8c# 8A\	8ff#'\J	.
.	.	.	.	.	.	4e 4c# 4A\	4gg\	.
.	.	.	.	.	.	4e 4c# 4A\	8ee\L	.
.	.	.	.	.	.	.	8ff#\J	.
*	*	*	*	*	*	*Xhead	*	*
=24	=24	=24	=24	=24	=24	=24	=24	=24
1ryy	1ryy	1ryy	.	1ryy	.	4AA/	2ggn^<TT\	.
.	.	.	.	.	.	4e 4c# 4A\	.	.
.	.	.	.	.	.	.	16qqff#/LL	.
.	.	.	.	.	.	.	16qqgg/JJ	.
.	.	.	.	.	.	4AA/	2gg#X^<tt\	.
.	.	.	.	.	.	4e 4d 4B 4A\	.	.
.	.	.	.	.	.	.	16qqff#/LL	.
.	.	.	.	.	.	.	16qqgg#/JJ	.
!!linebreak:original
=25	=25	=25	=25	=25	=25	=25	=25	=25
1ryy	1ryy	1ryy	.	1ryy	.	4AA/	(2aa\	.
.	.	.	.	.	.	8eL 8c# 8A\	.	.
*	*	*	*	*	*	*head:invis	*	*
.	.	.	.	.	.	8eJ 8c# 8A\	.	.
.	.	.	.	.	.	4e 4c# 4A\	4ee\)	.
.	.	.	.	.	.	4e 4c# 4A\	8eeeL 8ee\	.
.	.	.	.	.	.	.	8ddd\J	.
*	*	*	*	*	*	*Xhead	*	*
*	*	*	*	*	*	*Xrep	*	*
=26	=26	=26	=26	=26	=26	=26	=26	=26
*	*	*	*	*	*	*rep	*	*
1ryy	1ryy	1ryy	.	1ryy	.	4AA/	4ccc#^\	.
.	.	.	.	.	.	8eL 8c# 8A\	8bb\L	.
*	*	*	*	*	*	*head:invis	*	*
.	.	.	.	.	.	8eJ 8c# 8A\	8aa\J	.
.	.	.	.	.	.	4e 4c# 4A\	4aa^TT\	.
.	.	.	.	.	.	4e 4c# 4A\	8gg#\L	.
.	.	.	.	.	.	.	8ff#\J	.
*	*	*	*	*	*	*Xhead	*	*
*	*	*	*	*	*	*Xrep	*	*
=27	=27	=27	=27	=27	=27	=27	=27	=27
*	*	*	*	*	*	*rep	*	*
1ryy	1ryy	1ryy	.	1ryy	.	4AA/	(8ee\L	.
.	.	.	.	.	.	.	8dd\	.
.	.	.	.	.	.	8eL 8c# 8A\	8cc#\)	.
*	*	*	*	*	*	*head:invis	*	*
.	.	.	.	.	.	8eJ 8c# 8A\	8aa\J	.
.	.	.	.	.	.	4e 4c# 4A\	4ee\	.
.	.	.	.	.	.	4e 4c# 4A\	8eee\L	.
.	.	.	.	.	.	.	8ddd\J	.
*	*	*	*	*	*	*Xhead	*	*
*	*	*	*	*	*	*Xrep	*	*
=28	=28	=28	=28	=28	=28	=28	=28	=28
*	*	*	*	*	*	*rep	*	*
1ryy	1ryy	1ryy	.	1ryy	.	4AA/	4ccc#\	.
.	.	.	.	.	.	8eL 8c# 8A\	8bb\L	.
*	*	*	*	*	*	*head:invis	*	*
.	.	.	.	.	.	8eJ 8c# 8A\	8aa\J	.
.	.	.	.	.	.	4e 4c# 4A\	(4aaTT\	.
.	.	.	.	.	.	4e 4c# 4A\	8gg#\L)	.
.	.	.	.	.	.	.	8ff#\J	.
*	*	*	*	*	*	*Xhead	*	*
*	*	*	*	*	*	*Xrep	*	*
=29	=29	=29	=29	=29	=29	=29	=29	=29
*	*	*	*	*	*	*	*^	*
1ryy	1ryy	1ryy	.	1ryy	.	4AA/	(8ee\L	2.ryy	.
.	.	.	.	.	.	.	8dd\	.	.
.	.	.	.	.	.	8eL 8c# 8A\	8cc#\)	.	.
*	*	*	*	*	*	*head:invis	*	*	*
.	.	.	.	.	.	8eJ 8c# 8A\	8aa\J	.	.
*	*	*	*	*	*	*Xhead	*	*	*
.	.	.	.	.	.	4e 4c# 4A\	4ee\	.	.
!	!	!	!	!	!	!	!	!	!LO:DY:t=pp.
.	.	.	.	.	.	4d 4D\	8ee/L	4ccn\	pp
.	.	.	.	.	.	.	8ff#/J	.	.
!	!	!	!	!	!	!	!LO:TX:a:rj:t=175:color=dodgerblue	!	!
!!pagebreak:original
=30	=30	=30	=30	=30	=30	=30	=30	=30	=30
1ryy	1ryy	1ryy	.	1ryy	.	4Gn 4GGn/	(2ggn/	2b\	.
.	.	.	.	.	.	8dL 8B 8G\	.	.	.
*	*	*	*	*	*	*head:invis	*	*	*
.	.	.	.	.	.	8dJ 8B 8G\	.	.	.
.	.	.	.	.	.	4d 4B 4G\	4dd/)	4b\	.
*	*	*	*	*	*	*Xhead	*	*	*
.	.	.	.	.	.	4d 4D\	8ee/L	4ccn\	.
.	.	.	.	.	.	.	8ff#/J	.	.
=31	=31	=31	=31	=31	=31	=31	=31	=31	=31
*	*	*	*	*	*	*rep	*rep	*rep	*
1ryy	1ryy	1ryy	.	1ryy	.	4Gn 4GGn/	(2ggn/	2b\	.
.	.	.	.	.	.	8dL 8B 8G\	.	.	.
*	*	*	*	*	*	*head:invis	*	*	*
.	.	.	.	.	.	8dJ 8B 8G\	.	.	.
.	.	.	.	.	.	4d 4B 4G\	4dd/)	4b\	.
*	*	*	*	*	*	*Xhead	*	*	*
.	.	.	.	.	.	4d 4D\	8ee/L	4ccn\	.
.	.	.	.	.	.	.	8ff#/J	.	.
*	*	*	*	*	*	*Xrep	*Xrep	*Xrep	*
=32	=32	=32	=32	=32	=32	=32	=32	=32	=32
1ryy	1ryy	1ryy	.	1ryy	.	4d 4Gn\	4ggn/	4b\	.
.	.	.	.	.	.	4d 4D\	(8ee/L	4ccn\	.
.	.	.	.	.	.	.	8ff#/J	.	.
.	.	.	.	.	.	4d 4G\	4gg/)	4b\	.
!	!	!	!	!	!	!LO:SIC:v:n=2:s=4Cn\	!	!	!
.	.	.	.	.	.	4cn 4C#\	(8dd/L	4b-X\	.
.	.	.	.	.	.	.	8ee/J	.	.
=33	=33	=33	=33	=33	=33	=33	=33	=33	=33
1ryy	1ryy	1ryy	.	1ryy	.	4Fn 4FFn/	2.ffn/)	2.a\	.
.	.	.	.	.	.	8cnL 8A 8F\	.	.	.
*	*	*	*	*	*	*head:invis	*	*	*
.	.	.	.	.	.	8cJ 8A 8F\	.	.	.
.	.	.	.	.	.	4c 4A 4F\	.	.	.
.	.	.	.	.	.	4c 4A 4F\	8cccnL 8ccn\	4ryy	.
.	.	.	.	.	.	.	8bb-X\J	.	.
*	*	*	*	*	*	*Xhead	*	*	*
*	*	*	*	*	*	*	*v	*v	*
=34	=34	=34	=34	=34	=34	=34	=34	=34
*	*	*	*	*	*	*rep	*	*
1ryy	1ryy	1ryy	.	1ryy	.	4Fn 4FFn/	4aa\	.
.	.	.	.	.	.	8cnL 8A 8F\	8ggn\L	.
*	*	*	*	*	*	*head:invis	*	*
.	.	.	.	.	.	8cJ 8A 8F\	8ffn\J	.
.	.	.	.	.	.	4c 4A 4F\	4ff\	.
.	.	.	.	.	.	4c 4A 4F\	8ee\L	.
.	.	.	.	.	.	.	8dd\J	.
!!linebreak:original
*	*	*	*	*	*	*Xhead	*	*
*	*	*	*	*	*	*Xrep	*	*
=35	=35	=35	=35	=35	=35	=35	=35	=35
*	*	*	*	*	*	*rep	*	*
1ryy	1ryy	1ryy	.	1ryy	.	4Fn 4FFn/	(8ccn\L	.
.	.	.	.	.	.	.	8b-X\	.
.	.	.	.	.	.	8cnL 8A 8F\	8a\)	.
*	*	*	*	*	*	*head:invis	*	*
.	.	.	.	.	.	8cJ 8A 8F\	8ffn\J	.
.	.	.	.	.	.	4c 4A 4F\	4cc\	.
.	.	.	.	.	.	4c 4A 4F\	8cccn\L	.
.	.	.	.	.	.	.	8bb-X\J	.
*	*	*	*	*	*	*Xhead	*	*
*	*	*	*	*	*	*Xrep	*	*
=36	=36	=36	=36	=36	=36	=36	=36	=36
*	*	*	*	*	*	*rep	*	*
1ryy	1ryy	1ryy	.	1ryy	.	4Fn 4FFn/	4aa\	.
.	.	.	.	.	.	8cnL 8A 8F\	8ggn\L	.
*	*	*	*	*	*	*head:invis	*	*
.	.	.	.	.	.	8cJ 8A 8F\	8ffn\J	.
.	.	.	.	.	.	4c 4A 4F\	4ffTT\	.
.	.	.	.	.	.	4c 4A 4F\	8ee\L	.
.	.	.	.	.	.	.	8dd\J	.
*	*	*	*	*	*	*Xhead	*	*
*	*	*	*	*	*	*Xrep	*	*
=37	=37	=37	=37	=37	=37	=37	=37	=37
*	*	*	*	*	*	*	*^	*
1ryy	1ryy	1ryy	.	1ryy	.	4Fn 4FFn/	8ccn\L	2.ryy	.
.	.	.	.	.	.	.	8b-X\	.	.
.	.	.	.	.	.	8AL 8F\	8a\	.	.
*	*	*	*	*	*	*head:invis	*	*	*
.	.	.	.	.	.	8AJ 8F\	8ffn\J	.	.
.	.	.	.	.	.	4A 4F\	4cc\	.	.
*	*	*	*	*	*	*Xhead	*	*	*
.	.	.	.	.	.	4D 4DD/	8ff/L	4dd 4a\	.
.	.	.	.	.	.	.	8ggn/J	.	.
=38	=38	=38	=38	=38	=38	=38	=38	=38	=38
1ryy	1ryy	1ryy	.	1ryy	.	4C# 4CC#/	2.aa 2.ee/	2.a\	.
.	.	.	.	.	.	8AL 8E 8C#\	.	.	.
*	*	*	*	*	*	*head:invis	*	*	*
.	.	.	.	.	.	8AJ 8E 8C#\	.	.	.
.	.	.	.	.	.	4A 4E 4C#\	.	.	.
*	*	*	*	*	*	*Xhead	*	*	*
.	.	.	.	.	.	4D 4DD/	8ffn/L	4dd 4a\	.
.	.	.	.	.	.	.	8ggn/J	.	.
!!linebreak:original
=39	=39	=39	=39	=39	=39	=39	=39	=39	=39
*	*	*	*	*	*	*rep	*	*	*
1ryy	1ryy	1ryy	.	1ryy	.	4C# 4CC#/	2.aa 2.ee/	2.a\	.
*	*	*	*	*	*	*head:invis	*	*	*
.	.	.	.	.	.	8AL 8E 8C#\	.	.	.
.	.	.	.	.	.	8AJ 8E 8C#\	.	.	.
.	.	.	.	.	.	4A 4E 4C#\	.	.	.
*	*	*	*	*	*	*Xhead	*	*	*
.	.	.	.	.	.	4D 4DD/	8ff#X/L	4dd 4a\	.
.	.	.	.	.	.	.	8gg#X/J	.	.
*	*	*	*	*	*	*Xrep	*	*	*
*	*	*	*	*	*	*	*v	*v	*
=40	=40	=40	=40	=40	=40	=40	=40	=40
1ryy	1ryy	1ryy	.	1ryy	.	4E 4EE/	4aa 4cc# 4a\	.
.	.	.	.	.	.	4c# 4A\	8gg#\L	.
.	.	.	.	.	.	.	8ff#\J	.
.	.	.	.	.	.	4E\	8ee\L	.
.	.	.	.	.	.	.	8dd\	.
.	.	.	.	.	.	4e 4G#\	8cc#\	.
.	.	.	.	.	.	.	8dd\J	.
=41	=41	=41	=41	=41	=41	=41	=41	=41
*	*	*	*	*	*	*	*^	*
1ryy	1ryy	1ryy	.	1ryy	.	4AA/	2ff#\	2.ryy	.
.	.	.	.	.	.	8eL 8c# 8A\	.	.	.
*	*	*	*	*	*	*head:invis	*	*	*
.	.	.	.	.	.	8eJ 8c# 8A\	.	.	.
.	.	.	.	.	.	4e 4c# 4A\	4ee\	.	.
*	*	*	*	*	*	*Xhead	*	*	*
.	.	.	.	.	.	4D 4DD/	8ff#/L	4dd 4a\	.
.	.	.	.	.	.	.	8gg#/J	.	.
=42	=42	=42	=42	=42	=42	=42	=42	=42	=42
1ryy	1ryy	1ryy	.	1ryy	.	4C# 4CC#/	2.aa 2.ee/	2.a\	.
.	.	.	.	.	.	8eL 8c# 8A\	.	.	.
*	*	*	*	*	*	*head:invis	*	*	*
.	.	.	.	.	.	8eJ 8c# 8A\	.	.	.
.	.	.	.	.	.	4e 4c# 4A\	.	.	.
*	*	*	*	*	*	*Xhead	*	*	*
.	.	.	.	.	.	4D 4DD/	8ff#/L	4dd 4a\	.
.	.	.	.	.	.	.	8gg#/J	.	.
!!linebreak:original
=43	=43	=43	=43	=43	=43	=43	=43	=43	=43
1ryy	1ryy	1ryy	.	1ryy	.	4C# 4CC#/	2.aa 2.ee/	2.a\	.
.	.	.	.	.	.	8eL 8c# 8A\	.	.	.
*	*	*	*	*	*	*head:invis	*	*	*
.	.	.	.	.	.	8eJ 8c# 8A\	.	.	.
.	.	.	.	.	.	4e 4c# 4A\	.	.	.
*	*	*	*	*	*	*Xhead	*	*	*
.	.	.	.	.	.	4d 4A 4D\	16aaLL 16ff#\	4ryy	.
.	.	.	.	.	.	.	16gg#\	.	.
.	.	.	.	.	.	.	16aa\	.	.
.	.	.	.	.	.	.	16bb\JJ	.	.
*	*	*	*	*	*	*	*v	*v	*
=44	=44	=44	=44	=44	=44	=44	=44	=44
1ryy	1ryy	1ryy	.	1ryy	.	4E 4EE\	4ccc#\	.
.	.	.	.	.	.	4c# 4A 4E\	16bb\LL	.
.	.	.	.	.	.	.	16aa\	.
.	.	.	.	.	.	.	16gg#\	.
.	.	.	.	.	.	.	16ff#\JJ	.
.	.	.	.	.	.	4E 4EE\	4ee\	.
.	.	.	.	.	.	4B 4G# 4E\	16eeLL 16e^\	.
.	.	.	.	.	.	.	16dd\	.
.	.	.	.	.	.	.	16cc#\	.
.	.	.	.	.	.	.	16b\JJ	.
=45	=45	=45	=45	=45	=45	=45	=45	=45
*	*	*	*	*	*	*	*^	*
1ryy	1ryy	1ryy	.	1ryy	.	4AA/	4a/	2.ryy	.
!	!	!	!	!	!	!	!	!LO:TX:t=P:problem:extended text	!LO:HP:t=cres-cen-do
.	.	.	.	.	.	4c# 4A 4E\	8eeL 8a/	.	<
*	*	*	*	*	*	*	*head:invis	*	*
.	.	.	.	.	.	.	8eeJ 8a/	.	.
*	*	*	*	*	*	*	*Xhead	*	*
.	.	.	.	.	.	4AA/	[2ee [>2a/	.	.
.	.	.	.	.	.	4c# 4A 4E\	.	8e\L	.
.	.	.	.	.	.	.	.	8e\J	.
=46	=46	=46	=46	=46	=46	=46	=46	=46	=46
*	*	*	*	*	*	*rep	*	*	*
1ryy	1ryy	1ryy	.	1ryy	.	4AA/	4ee] 4a/]	2.e\	.
.	.	.	.	.	.	4c# 4A 4E\	8eeL 8a/	.	.
.	.	.	.	.	.	.	8eeJ 8a/	.	.
!	!	!	!	!	!	!	!LO:TX:t=P:problem:błędnie wpisane łuki	!	!
.	.	.	.	.	.	4AA/	2ee 2a/	.	.
.	.	.	.	.	.	4c# 4A 4E\	.	8e\L	.
.	.	.	.	.	.	.	.	8e\J	.
*	*	*	*	*	*	*Xrep	*	*	*
*	*	*	*	*	*	*	*v	*v	*
!!linebreak:original
=47	=47	=47	=47	=47	=47	=47	=47	=47
*	*	*	*	*	*	*rep	*	*
1ryy	1ryy	1ryy	.	1ryy	.	4AA/	4e/	.
.	.	.	.	.	.	4c# 4A 4E\	2ee 2a 2e^/	.
.	.	.	.	.	.	4AA/	.	.
.	.	.	.	.	.	4c# 4A 4E\	[4ee [>4a [4e^/	.
*	*	*	*	*	*	*Xrep	*	*
=48	=48	=48	=48	=48	=48	=48	=48	=48
*	*	*	*	*	*	*rep	*	*
1ryy	1ryy	1ryy	.	1ryy	.	4AA/	4ee] 4a] 4e/]	.
.	.	.	.	.	.	4c# 4A 4E\	2ee 2a 2e^/	.
.	.	.	.	.	.	4AA/	.	.
!	!	!	!	!	!	!	!LO:TX:b:i:rj:t=re =:color=red	!
.	.	.	.	.	.	4c# 4A 4E\	4ee 4a 4e^/	f
!	!	!	!	!	!	!	!LO:TX:b:i:rj:t= w książce str. 37ma:color=dodgerblue	!
!!linebreak:original
*	*	*	*	*	*	*Xrep	*	*
=49	=49	=49	=49	=49	=49	=49	=49	=49
!	!	!	!	!LO:TX:a:rj:t=S=:color=red	!	!	!	!
!	!	!	!	!LO:TX:a:t=Chór.	!	!	!	!
1r	2A/	1r	.	2a/	Już	1ryy	1ryy	.
.	4.c#\	.	.	4.cc#\	oł-	.	.	.
.	8c#\	.	.	8cc#\	-tarz	.	.	.
=50	=50	=50	=50	=50	=50	=50	=50	=50
*	*2\right	*	*	*2\right	*	*	*	*
1r	2.e\	1r	.	2.ee\	go-	1ryy	1ryy	.
.	4c#\	.	.	4cc#\	-tow	.	.	.
=51	=51	=51	=51	=51	=51	=51	=51	=51
1r	(4A/	1r	.	(4a/	pod	1ryy	1ryy	.
.	4E/)	.	.	4e/)	.	.	.	.
.	4.A/	.	.	4.a/	gwia-	.	.	.
.	8B/	.	.	8b/	-zdę	.	.	.
=52	=52	=52	=52	=52	=52	=52	=52	=52
2r	2c#\	2r	.	2cc#\	swia-	1ryy	1ryy	.
4r	4A/	4r	.	4a\	-ta	.	.	.
4E\	4r	4e/	o-	4r	.	.	.	.
=53	=53	=53	=53	=53	=53	=53	=53	=53
*2\right	*	*	*	*	*	*	*	*
!	!	!	!	!	!	!	!LO:TX:t=P:problem:brak źródła	!
2.Gn\	1r	2.gn/	-cho-	1r	.	1ryy	1ryy	.
4E\	.	4e/	-czo	.	.	.	.	.
=	=	=	=	=	=	=	=	=
*-	*-	*-	*-	*-	*-	*-	*-	*-
!!!system-decoration: {(s1,s2)}[(s3)],[(s4)],[(s5)],[(s6)]
!!!RDF**kern: > = above
!!!RDF**kern: < = below
!!!RDF**kern: @ = marked note, color=dodgerblue
!!!ENC: Katarzyna Serwa
!!!END: 2021-10-20
!!!ENC: Anastazja Marusiak
!!!END: 2021-09-09
